X:170
U: ~ = !turn!
%%topmargin 3cm
T:Providence Reel
B:Traditional Irish Fiddle Tunes. Randy Miller and Jack Perron.
Z:Transcribed by Ralph Palmer
R:Reel
M:C|
L:1/8
K:D
{EF}EDCE DEFA | (3.d.d.d fd gdfd | edBd AdBA | ((3Bcd) AF EGFD |
E3F DEFA | Jd2 fd gdfd | edBd AdBA | ((3Bcd) AG FDD2 ::
fd (3.d.d.d fdgd | fd (3.d.d.d ecAe | fd (3.d.d.d fded | ceag fdde |
fg ((3agf) gfec | ((3dcB) AF JG2FG | (3.A.B.A FA ABde | ((3fga) eg fdd2 :|]
